X:30
T: Xiao nu xu
N: C0039
O: China,Gansu, Pingliang
S: I, 130, 2)]
N: ]
R: Xiaodiao. Fun ku]
M: 2/4
L: 1/16
K: D
B4BdBA | F2AFE3F | B4BdBA | F4F4 |
F2FAB2BA | FFABF4 | A2AFE3D | E8 |
F2FAB2BA | FFABF4 | A2AFE3D | E8

@@@ Tune index: 6031
